assets/img03.svg

<svg width="1753" height="909" fill="none" xmlns="http://www.w3.org/2000/svg"><mask id="c" fill="#fff"><path d="M0 82h1420c11.05 0 20 8.954 20 20v807H0V82Z"/></mask><path d="M0 82h1420c11.05 0 20 8.954 20 20v807H0V82Z" fill="url(#a)"/><path d="M0 80.5h1420c11.87 0 21.5 9.626 21.5 21.5h-3c0-10.217-8.28-18.5-18.5-18.5H0v-3ZM1440 909H0h1440ZM0 909V82v827ZM1420 80.5c11.87 0 21.5 9.626 21.5 21.5v807h-3V102c0-10.217-8.28-18.5-18.5-18.5v-3Z" fill="url(#b)" mask="url(#c)"/><g clip-path="url(#d)"><rect x="-165" y="227.148" width="497.12" height="609.942" rx="12" fill="#2B2C34"/><path d="M838.164 877.681c0-6.628-5.373-12-12-12H-153c-6.627 0-12 5.372-12 12v362.069H838.164V877.681Z" fill="url(#e)"/><path d="M1360 877.681c0-6.628-5.37-12-12-12H885.906c-6.627 0-12 5.372-12 12v362.069H1360V877.681Z" fill="url(#f)"/><rect x="368.75" y="227.148" width="991.047" height="602.696" rx="12" fill="url(#g)"/></g><mask id="j" fill="#fff"><path d="M0 82h1420c11.05 0 20 8.954 20 20v58H0V82Z"/></mask><path d="M0 82h1420c11.05 0 20 8.954 20 20v58H0V82Z" fill="url(#h)"/><path d="M0 80.5h1420c11.87 0 21.5 9.626 21.5 21.5h-3c0-10.217-8.28-18.5-18.5-18.5H0v-3ZM1440 160H0h1440ZM0 160V82v78Zm1420-79.5c11.87 0 21.5 9.626 21.5 21.5v58h-3v-58c0-10.217-8.28-18.5-18.5-18.5v-3Z" fill="url(#i)" mask="url(#j)"/><g opacity=".5" filter="url(#l)" clip-path="url(#k)"><path d="m7 814 214.628-147.496c58.158 16.487 177.629 49.46 190.249 49.46 12.619 0 186.903-114.523 272.467-171.784L981.19 727.004l205.55-268.937 226.57 45.044L1681 54" stroke="url(#m)" stroke-width="20" stroke-linecap="round"/></g><path fill-rule="evenodd" clip-rule="evenodd" d="M1675.81 36.102c2.55-4.275.86-9.65-3.76-12.004-4.63-2.355-10.44-.797-12.99 3.479l-264.27 443.639-225.82-44.918-203.839 266.853-294.653-181.577-5.383 3.604c-42.755 28.629-107.665 71.565-163.441 107.33-27.899 17.889-53.444 33.941-72.766 45.502-9.677 5.79-17.683 10.387-23.595 13.511-2.973 1.571-5.266 2.69-6.9 3.39-.395.17-.717.3-.973.398a41.252 41.252 0 0 1-1.198-.17c-1.364-.211-3.151-.54-5.362-.99-4.415-.899-10.21-2.22-17.103-3.884-13.769-3.323-31.616-7.939-50.948-13.087-38.648-10.292-83.003-22.649-112.052-30.889l-4.628-1.312L0 776.957V799l209.777-144.502c29.06 8.221 70.953 19.869 107.738 29.665 19.386 5.162 37.412 9.826 51.412 13.205 6.991 1.687 13.056 3.073 17.819 4.043 4.345.884 8.655 1.656 11.47 1.656 1.994 0 3.747-.495 4.699-.792 1.156-.359 2.354-.828 3.523-1.329 2.348-1.006 5.177-2.405 8.346-4.08 6.369-3.366 14.719-8.17 24.494-14.018 19.582-11.717 45.326-27.895 73.275-45.817 53.624-34.385 115.619-75.349 158.375-103.936l299.086 184.308L1177.3 446.036l227.37 45.227 271.14-455.16ZM396.671 685.564a.555.555 0 0 1 .101-.028 1.145 1.145 0 0 1-.101.028Z" fill="url(#n)"/><defs><linearGradient id="h" x1="0" y1="121" x2="1440" y2="121" gradientUnits="userSpaceOnUse"><stop offset=".474" stop-color="#141619"/><stop offset="1" stop-color="#152521"/></linearGradient><linearGradient id="b" x1="1440" y1="222.5" x2="842.5" y2="909" gradientUnits="userSpaceOnUse"><stop stop-color="#3F6F68"/><stop offset="1" stop-color="#3D4D55"/></linearGradient><linearGradient id="e" x1="838" y1="866" x2="2.5" y2="913" gradientUnits="userSpaceOnUse"><stop stop-color="#303740"/><stop offset="1" stop-color="#2B2C34"/></linearGradient><linearGradient id="f" x1="1360" y1="866" x2="874" y2="891.5" gradientUnits="userSpaceOnUse"><stop stop-color="#2F4346"/><stop offset="1" stop-color="#2F363F"/></linearGradient><linearGradient id="g" x1="1360" y1="291" x2="369" y2="794" gradientUnits="userSpaceOnUse"><stop stop-color="#31524F"/><stop offset=".171" stop-color="#2F4245"/><stop offset=".441" stop-color="#2C363C"/><stop offset=".779" stop-color="#2B2C34"/></linearGradient><linearGradient id="a" x1="1440" y1="230" x2="368" y2="909" gradientUnits="userSpaceOnUse"><stop stop-color="#253F3B"/><stop offset=".44" stop-color="#23242A"/></linearGradient><linearGradient id="i" x1="0" y1="121" x2="1440" y2="121" gradientUnits="userSpaceOnUse"><stop offset=".495" stop-color="#404350"/><stop offset="1" stop-color="#407068"/></linearGradient><linearGradient id="m" x1="1322.01" y1="454.092" x2="40.436" y2="869.907" gradientUnits="userSpaceOnUse"><stop stop-color="#1BBD8C"/><stop offset=".613" stop-color="#39404B"/></linearGradient><linearGradient id="n" x1="1315.59" y1="432.629" x2="33.777" y2="848.285" gradientUnits="userSpaceOnUse"><stop stop-color="#1BBD8C"/><stop offset=".613" stop-color="#39404B"/></linearGradient><clipPath id="k"><path fill="#fff" d="M0 0h1753v909H0z"/></clipPath><clipPath id="d"><path fill="#fff" transform="translate(0 227)" d="M0 0h1360v682H0z"/></clipPath><filter id="l" x="-53.001" y="-6.001" width="1794" height="880.002" filterUnits="userSpaceOnUse" color-interpolation-filters="sRGB"><feFlood flood-opacity="0" result="BackgroundImageFix"/><feBlend in="SourceGraphic" in2="BackgroundImageFix" result="shape"/><feGaussianBlur stdDeviation="25" result="effect1_foregroundBlur_19_575"/></filter></defs></svg>

<svg width="1753" height="909" viewBox="0 0 1753 909" fill="none" xmlns="http://www.w3.org/2000/svg">
<mask id="path-1-inside-1_19_575" fill="white">
<path d="M0 82H1420C1431.05 82 1440 90.9543 1440 102V909H0V82Z"/>
</mask>
<path d="M0 82H1420C1431.05 82 1440 90.9543 1440 102V909H0V82Z" fill="url(#paint0_linear_19_575)"/>
<path d="M0 80.5H1420C1431.87 80.5 1441.5 90.1259 1441.5 102H1438.5C1438.5 91.7827 1430.22 83.5 1420 83.5H0V80.5ZM1440 909H0H1440ZM0 909V82V909ZM1420 80.5C1431.87 80.5 1441.5 90.1259 1441.5 102V909H1438.5V102C1438.5 91.7827 1430.22 83.5 1420 83.5V80.5Z" fill="url(#paint1_linear_19_575)" mask="url(#path-1-inside-1_19_575)"/>
<g clip-path="url(#clip0_19_575)">
<rect x="-165" y="227.148" width="497.12" height="609.942" rx="12" fill="#2B2C34"/>
<path d="M838.164 877.681C838.164 871.053 832.791 865.681 826.164 865.681H-153C-159.627 865.681 -165 871.053 -165 877.681V1239.75H838.164V877.681Z" fill="url(#paint2_linear_19_575)"/>
<path d="M1360 877.681C1360 871.053 1354.63 865.681 1348 865.681H885.906C879.279 865.681 873.906 871.053 873.906 877.681V1239.75H1360V877.681Z" fill="url(#paint3_linear_19_575)"/>
<rect x="368.75" y="227.148" width="991.047" height="602.696" rx="12" fill="url(#paint4_linear_19_575)"/>
</g>
<mask id="path-7-inside-2_19_575" fill="white">
<path d="M0 82H1420C1431.05 82 1440 90.9543 1440 102V160H0V82Z"/>
</mask>
<path d="M0 82H1420C1431.05 82 1440 90.9543 1440 102V160H0V82Z" fill="url(#paint5_linear_19_575)"/>
<path d="M0 80.5H1420C1431.87 80.5 1441.5 90.1259 1441.5 102H1438.5C1438.5 91.7827 1430.22 83.5 1420 83.5H0V80.5ZM1440 160H0H1440ZM0 160V82V160ZM1420 80.5C1431.87 80.5 1441.5 90.1259 1441.5 102V160H1438.5V102C1438.5 91.7827 1430.22 83.5 1420 83.5V80.5Z" fill="url(#paint6_linear_19_575)" mask="url(#path-7-inside-2_19_575)"/>
<g clip-path="url(#clip1_19_575)">
<g opacity="0.5" filter="url(#filter0_f_19_575)">
<path d="M7 814L221.628 666.504C279.786 682.991 399.257 715.964 411.877 715.964C424.496 715.964 598.78 601.441 684.344 544.18L981.19 727.004L1186.74 458.067L1413.31 503.111L1681 54" stroke="url(#paint7_linear_19_575)" stroke-width="20" stroke-linecap="round"/>
</g>
</g>
<path fill-rule="evenodd" clip-rule="evenodd" d="M1675.81 36.1023C1678.36 31.8267 1676.67 26.452 1672.05 24.0977C1667.42 21.7434 1661.61 23.3009 1659.06 27.5765L1394.79 471.216L1168.97 426.298L965.131 693.151L670.478 511.574L665.095 515.178C622.34 543.807 557.43 586.743 501.654 622.508C473.755 640.397 448.21 656.449 428.888 668.01C419.211 673.8 411.205 678.397 405.293 681.521C402.32 683.092 400.027 684.211 398.393 684.911C397.998 685.081 397.676 685.211 397.42 685.309C397.118 685.271 396.723 685.217 396.222 685.139C394.858 684.928 393.071 684.599 390.86 684.149C386.445 683.25 380.65 681.929 373.757 680.265C359.988 676.942 342.141 672.326 322.809 667.178C284.161 656.886 239.806 644.529 210.757 636.289L206.129 634.977L0 776.957V799L209.777 654.498C238.837 662.719 280.73 674.367 317.515 684.163C336.901 689.325 354.927 693.989 368.927 697.368C375.918 699.055 381.983 700.441 386.746 701.411C391.091 702.295 395.401 703.067 398.216 703.067C400.21 703.067 401.963 702.572 402.915 702.275C404.071 701.916 405.269 701.447 406.438 700.946C408.786 699.94 411.615 698.541 414.784 696.866C421.153 693.5 429.503 688.696 439.278 682.848C458.86 671.131 484.604 654.953 512.553 637.031C566.177 602.646 628.172 561.682 670.928 533.095L970.014 717.403L1177.3 446.036L1404.67 491.263L1675.81 36.1023ZM396.671 685.564C396.663 685.565 396.699 685.553 396.772 685.536C396.71 685.555 396.678 685.563 396.671 685.564Z" fill="url(#paint8_linear_19_575)"/>
<defs>
<filter id="filter0_f_19_575" x="-53.001" y="-6.00146" width="1794" height="880.002" filterUnits="userSpaceOnUse" color-interpolation-filters="sRGB">
<feFlood flood-opacity="0" result="BackgroundImageFix"/>
<feBlend mode="normal" in="SourceGraphic" in2="BackgroundImageFix" result="shape"/>
<feGaussianBlur stdDeviation="25" result="effect1_foregroundBlur_19_575"/>
</filter>
<linearGradient id="paint0_linear_19_575" x1="1440" y1="230" x2="368" y2="909" gradientUnits="userSpaceOnUse">
<stop stop-color="#253F3B"/>
<stop offset="0.44" stop-color="#23242A"/>
</linearGradient>
<linearGradient id="paint1_linear_19_575" x1="1440" y1="222.5" x2="842.5" y2="909" gradientUnits="userSpaceOnUse">
<stop stop-color="#3F6F68"/>
<stop offset="1" stop-color="#3D4D55"/>
</linearGradient>
<linearGradient id="paint2_linear_19_575" x1="838" y1="866" x2="2.50002" y2="913" gradientUnits="userSpaceOnUse">
<stop stop-color="#303740"/>
<stop offset="1" stop-color="#2B2C34"/>
</linearGradient>
<linearGradient id="paint3_linear_19_575" x1="1360" y1="866" x2="874" y2="891.5" gradientUnits="userSpaceOnUse">
<stop stop-color="#2F4346"/>
<stop offset="1" stop-color="#2F363F"/>
</linearGradient>
<linearGradient id="paint4_linear_19_575" x1="1360" y1="291" x2="369" y2="794" gradientUnits="userSpaceOnUse">
<stop stop-color="#31524F"/>
<stop offset="0.170508" stop-color="#2F4245"/>
<stop offset="0.440985" stop-color="#2C363C"/>
<stop offset="0.779374" stop-color="#2B2C34"/>
</linearGradient>
<linearGradient id="paint5_linear_19_575" x1="0" y1="121" x2="1440" y2="121" gradientUnits="userSpaceOnUse">
<stop offset="0.47361" stop-color="#141619"/>
<stop offset="1" stop-color="#152521"/>
</linearGradient>
<linearGradient id="paint6_linear_19_575" x1="0" y1="121" x2="1440" y2="121" gradientUnits="userSpaceOnUse">
<stop offset="0.495" stop-color="#404350"/>
<stop offset="1" stop-color="#407068"/>
</linearGradient>
<linearGradient id="paint7_linear_19_575" x1="1322.01" y1="454.092" x2="40.4356" y2="869.907" gradientUnits="userSpaceOnUse">
<stop stop-color="#1BBD8C"/>
<stop offset="0.613423" stop-color="#39404B"/>
</linearGradient>
<linearGradient id="paint8_linear_19_575" x1="1315.59" y1="432.629" x2="33.7773" y2="848.285" gradientUnits="userSpaceOnUse">
<stop stop-color="#1BBD8C"/>
<stop offset="0.613423" stop-color="#39404B"/>
</linearGradient>
<clipPath id="clip0_19_575">
<rect width="1360" height="682" fill="white" transform="translate(0 227)"/>
</clipPath>
<clipPath id="clip1_19_575">
<rect width="1753" height="909" fill="white"/>
</clipPath>
</defs>
</svg>
